ExifTool/Tests/ExiftoolTests/262M1559.xmp
<?xpacket begin='﻿' id='W5M0MpCehiHzreSzNTczkc9d'?>
<x:xmpmeta xmlns:x='adobe:ns:meta/' x:xmptk='Image::ExifTool 13.25'>
<rdf:RDF xmlns:rdf='http://www.w3.org/1999/02/22-rdf-syntax-ns#'>

 <rdf:Description rdf:about=''
  xmlns:Iptc4xmpCore='http://iptc.org/std/Iptc4xmpCore/1.0/xmlns/'>
  <Iptc4xmpCore:CreatorContactInfo rdf:parseType='Resource'>
   <Iptc4xmpCore:CiAdrCity>San Mateo</Iptc4xmpCore:CiAdrCity>
   <Iptc4xmpCore:CiAdrCtry>USA</Iptc4xmpCore:CiAdrCtry>
   <Iptc4xmpCore:CiAdrExtadr>2121 Ticonderoga Dr</Iptc4xmpCore:CiAdrExtadr>
   <Iptc4xmpCore:CiAdrPcode>94402</Iptc4xmpCore:CiAdrPcode>
   <Iptc4xmpCore:CiAdrRegion>Ca</Iptc4xmpCore:CiAdrRegion>
   <Iptc4xmpCore:CiEmailWork>marc@snafu.org</Iptc4xmpCore:CiEmailWork>
   <Iptc4xmpCore:CiTelWork>+1 650-678-1281</Iptc4xmpCore:CiTelWork>
   <Iptc4xmpCore:CiUrlWork>http://www.snafu.org</Iptc4xmpCore:CiUrlWork>
  </Iptc4xmpCore:CreatorContactInfo>
 </rdf:Description>

 <rdf:Description rdf:about=''
  xmlns:MicrosoftPhoto='http://ns.microsoft.com/photo/1.0'>
  <MicrosoftPhoto:CameraSerialNumber>4981132</MicrosoftPhoto:CameraSerialNumber>
 </rdf:Description>

 <rdf:Description rdf:about=''
  xmlns:aux='http://ns.adobe.com/exif/1.0/aux/'>
  <aux:Lens>Apo-Summicron-M 1:2/75 ASPH .</aux:Lens>
 </rdf:Description>

 <rdf:Description rdf:about=''
  xmlns:crd='http://ns.adobe.com/camera-raw-defaults/1.0/'
  xmlns:crs='http://ns.adobe.com/camera-raw-settings/1.0/'>
  <crd:GradientBasedCorrections>
   <rdf:Seq>
    <rdf:li rdf:parseType='Resource'>
     <crs:CorrectionActive>True</crs:CorrectionActive>
     <crs:CorrectionAmount>1.000000</crs:CorrectionAmount>
     <crs:CorrectionMasks>
      <rdf:Seq>
       <rdf:li rdf:parseType='Resource'>
        <crs:FullX>0.260276</crs:FullX>
        <crs:FullY>0.307939</crs:FullY>
        <crs:MaskValue>1.000000</crs:MaskValue>
        <crs:What>Mask/Gradient</crs:What>
        <crs:ZeroX>0.406974</crs:ZeroX>
        <crs:ZeroY>0.253734</crs:ZeroY>
       </rdf:li>
      </rdf:Seq>
     </crs:CorrectionMasks>
     <crs:CorrectionRangeMask rdf:parseType='Resource'>
      <crs:ColorAmount>0.500000</crs:ColorAmount>
      <crs:DepthFeather>0.500000</crs:DepthFeather>
      <crs:DepthMax>1.000000</crs:DepthMax>
      <crs:DepthMin>0.000000</crs:DepthMin>
      <crs:LumFeather>0.500000</crs:LumFeather>
      <crs:LumMax>1.000000</crs:LumMax>
      <crs:LumMin>0.000000</crs:LumMin>
      <crs:Type>0</crs:Type>
      <crs:Version>+2</crs:Version>
     </crs:CorrectionRangeMask>
     <crs:LocalBlacks2012>0.000000</crs:LocalBlacks2012>
     <crs:LocalBrightness>0.000000</crs:LocalBrightness>
     <crs:LocalClarity>0.000000</crs:LocalClarity>
     <crs:LocalClarity2012>0.000000</crs:LocalClarity2012>
     <crs:LocalContrast>0.000000</crs:LocalContrast>
     <crs:LocalContrast2012>0.000000</crs:LocalContrast2012>
     <crs:LocalDefringe>0.000000</crs:LocalDefringe>
     <crs:LocalDehaze>0.000000</crs:LocalDehaze>
     <crs:LocalExposure>0.000000</crs:LocalExposure>
     <crs:LocalExposure2012>-0.056004</crs:LocalExposure2012>
     <crs:LocalHighlights2012>-0.248157</crs:LocalHighlights2012>
     <crs:LocalLuminanceNoise>0.000000</crs:LocalLuminanceNoise>
     <crs:LocalMoire>0.000000</crs:LocalMoire>
     <crs:LocalSaturation>0.000000</crs:LocalSaturation>
     <crs:LocalShadows2012>0.000000</crs:LocalShadows2012>
     <crs:LocalSharpness>0.000000</crs:LocalSharpness>
     <crs:LocalTemperature>0.000000</crs:LocalTemperature>
     <crs:LocalTint>0.000000</crs:LocalTint>
     <crs:LocalToningHue>240.000000</crs:LocalToningHue>
     <crs:LocalToningSaturation>0.000000</crs:LocalToningSaturation>
     <crs:LocalWhites2012>0.000000</crs:LocalWhites2012>
     <crs:What>Correction</crs:What>
    </rdf:li>
   </rdf:Seq>
  </crd:GradientBasedCorrections>
  <crd:Look rdf:parseType='Resource'>
   <crs:Name/>
  </crd:Look>
  <crs:AlreadyApplied>False</crs:AlreadyApplied>
  <crs:AutoLateralCA>0</crs:AutoLateralCA>
  <crs:AutoToneDigest>E94F515AB370BBD265E9610A2564C842</crs:AutoToneDigest>
  <crs:AutoToneDigestNoSat>8EE881FD8F18DF9CA9A470B07C82E2B5</crs:AutoToneDigestNoSat>
  <crs:Blacks2012>-35</crs:Blacks2012>
  <crs:BlueHue>0</crs:BlueHue>
  <crs:BlueSaturation>0</crs:BlueSaturation>
  <crs:CameraProfile>Sunlight M</crs:CameraProfile>
  <crs:CameraProfileDigest>07B8AE879D07B58D958CDCD20D535B94</crs:CameraProfileDigest>
  <crs:Clarity2012>+6</crs:Clarity2012>
  <crs:ColorNoiseReduction>25</crs:ColorNoiseReduction>
  <crs:ColorNoiseReductionDetail>50</crs:ColorNoiseReductionDetail>
  <crs:ColorNoiseReductionSmoothness>50</crs:ColorNoiseReductionSmoothness>
  <crs:Contrast2012>+10</crs:Contrast2012>
  <crs:ConvertToGrayscale>False</crs:ConvertToGrayscale>
  <crs:CropAngle>0</crs:CropAngle>
  <crs:CropBottom>0.979672</crs:CropBottom>
  <crs:CropConstrainToWarp>0</crs:CropConstrainToWarp>
  <crs:CropLeft>0.115255</crs:CropLeft>
  <crs:CropRight>0.961727</crs:CropRight>
  <crs:CropTop>0.1332</crs:CropTop>
  <crs:DefringeGreenAmount>0</crs:DefringeGreenAmount>
  <crs:DefringeGreenHueHi>60</crs:DefringeGreenHueHi>
  <crs:DefringeGreenHueLo>40</crs:DefringeGreenHueLo>
  <crs:DefringePurpleAmount>0</crs:DefringePurpleAmount>
  <crs:DefringePurpleHueHi>70</crs:DefringePurpleHueHi>
  <crs:DefringePurpleHueLo>30</crs:DefringePurpleHueLo>
  <crs:Dehaze>0</crs:Dehaze>
  <crs:Exposure2012>+0.70</crs:Exposure2012>
  <crs:GradientBasedCorrections>
   <rdf:Seq>
    <rdf:li rdf:parseType='Resource'>
     <crs:CorrectionActive>True</crs:CorrectionActive>
     <crs:CorrectionAmount>1.000000</crs:CorrectionAmount>
     <crs:CorrectionMasks>
      <rdf:Seq>
       <rdf:li rdf:parseType='Resource'>
        <crs:FullX>0.260276</crs:FullX>
        <crs:FullY>0.307939</crs:FullY>
        <crs:MaskValue>1.000000</crs:MaskValue>
        <crs:What>Mask/Gradient</crs:What>
        <crs:ZeroX>0.406974</crs:ZeroX>
        <crs:ZeroY>0.253734</crs:ZeroY>
       </rdf:li>
      </rdf:Seq>
     </crs:CorrectionMasks>
     <crs:CorrectionRangeMask rdf:parseType='Resource'>
      <crs:ColorAmount>0.500000</crs:ColorAmount>
      <crs:DepthFeather>0.500000</crs:DepthFeather>
      <crs:DepthMax>1.000000</crs:DepthMax>
      <crs:DepthMin>0.000000</crs:DepthMin>
      <crs:LumFeather>0.500000</crs:LumFeather>
      <crs:LumMax>1.000000</crs:LumMax>
      <crs:LumMin>0.000000</crs:LumMin>
      <crs:Type>0</crs:Type>
      <crs:Version>+2</crs:Version>
     </crs:CorrectionRangeMask>
     <crs:LocalBlacks2012>0.000000</crs:LocalBlacks2012>
     <crs:LocalBrightness>0.000000</crs:LocalBrightness>
     <crs:LocalClarity>0.000000</crs:LocalClarity>
     <crs:LocalClarity2012>0.000000</crs:LocalClarity2012>
     <crs:LocalContrast>0.000000</crs:LocalContrast>
     <crs:LocalContrast2012>0.000000</crs:LocalContrast2012>
     <crs:LocalDefringe>0.000000</crs:LocalDefringe>
     <crs:LocalDehaze>0.000000</crs:LocalDehaze>
     <crs:LocalExposure>0.000000</crs:LocalExposure>
     <crs:LocalExposure2012>-0.056004</crs:LocalExposure2012>
     <crs:LocalHighlights2012>-0.248157</crs:LocalHighlights2012>
     <crs:LocalLuminanceNoise>0.000000</crs:LocalLuminanceNoise>
     <crs:LocalMoire>0.000000</crs:LocalMoire>
     <crs:LocalSaturation>0.000000</crs:LocalSaturation>
     <crs:LocalShadows2012>0.000000</crs:LocalShadows2012>
     <crs:LocalSharpness>0.000000</crs:LocalSharpness>
     <crs:LocalTemperature>0.000000</crs:LocalTemperature>
     <crs:LocalTint>0.000000</crs:LocalTint>
     <crs:LocalToningHue>240.000000</crs:LocalToningHue>
     <crs:LocalToningSaturation>0.000000</crs:LocalToningSaturation>
     <crs:LocalWhites2012>0.000000</crs:LocalWhites2012>
     <crs:What>Correction</crs:What>
    </rdf:li>
   </rdf:Seq>
  </crs:GradientBasedCorrections>
  <crs:GrainAmount>0</crs:GrainAmount>
  <crs:GreenHue>0</crs:GreenHue>
  <crs:GreenSaturation>0</crs:GreenSaturation>
  <crs:HasCrop>True</crs:HasCrop>
  <crs:HasSettings>True</crs:HasSettings>
  <crs:Highlights2012>-38</crs:Highlights2012>
  <crs:HueAdjustmentAqua>0</crs:HueAdjustmentAqua>
  <crs:HueAdjustmentBlue>0</crs:HueAdjustmentBlue>
  <crs:HueAdjustmentGreen>0</crs:HueAdjustmentGreen>
  <crs:HueAdjustmentMagenta>0</crs:HueAdjustmentMagenta>
  <crs:HueAdjustmentOrange>0</crs:HueAdjustmentOrange>
  <crs:HueAdjustmentPurple>0</crs:HueAdjustmentPurple>
  <crs:HueAdjustmentRed>0</crs:HueAdjustmentRed>
  <crs:HueAdjustmentYellow>0</crs:HueAdjustmentYellow>
  <crs:LensManualDistortionAmount>0</crs:LensManualDistortionAmount>
  <crs:LensProfileChromaticAberrationScale>100</crs:LensProfileChromaticAberrationScale>
  <crs:LensProfileDigest>BF2765B124CC319DDCA657754BC268D3</crs:LensProfileDigest>
  <crs:LensProfileDistortionScale>100</crs:LensProfileDistortionScale>
  <crs:LensProfileEnable>1</crs:LensProfileEnable>
  <crs:LensProfileFilename>Leica Camera AG (Leica APO-SUMMICRON-M 75 mm f2 ASPH.) - RAW.lcp</crs:LensProfileFilename>
  <crs:LensProfileName>Adobe (Leica APO-SUMMICRON-M 75 mm f/2 ASPH.)</crs:LensProfileName>
  <crs:LensProfileSetup>LensDefaults</crs:LensProfileSetup>
  <crs:LensProfileVignettingScale>100</crs:LensProfileVignettingScale>
  <crs:Look rdf:parseType='Resource'>
   <crs:Name/>
  </crs:Look>
  <crs:LuminanceAdjustmentAqua>0</crs:LuminanceAdjustmentAqua>
  <crs:LuminanceAdjustmentBlue>0</crs:LuminanceAdjustmentBlue>
  <crs:LuminanceAdjustmentGreen>0</crs:LuminanceAdjustmentGreen>
  <crs:LuminanceAdjustmentMagenta>0</crs:LuminanceAdjustmentMagenta>
  <crs:LuminanceAdjustmentOrange>0</crs:LuminanceAdjustmentOrange>
  <crs:LuminanceAdjustmentPurple>0</crs:LuminanceAdjustmentPurple>
  <crs:LuminanceAdjustmentRed>0</crs:LuminanceAdjustmentRed>
  <crs:LuminanceAdjustmentYellow>0</crs:LuminanceAdjustmentYellow>
  <crs:LuminanceSmoothing>0</crs:LuminanceSmoothing>
  <crs:OverrideLookVignette>False</crs:OverrideLookVignette>
  <crs:ParametricDarks>0</crs:ParametricDarks>
  <crs:ParametricHighlightSplit>75</crs:ParametricHighlightSplit>
  <crs:ParametricHighlights>0</crs:ParametricHighlights>
  <crs:ParametricLights>0</crs:ParametricLights>
  <crs:ParametricMidtoneSplit>50</crs:ParametricMidtoneSplit>
  <crs:ParametricShadowSplit>25</crs:ParametricShadowSplit>
  <crs:ParametricShadows>0</crs:ParametricShadows>
  <crs:PerspectiveAspect>0</crs:PerspectiveAspect>
  <crs:PerspectiveHorizontal>0</crs:PerspectiveHorizontal>
  <crs:PerspectiveRotate>0.0</crs:PerspectiveRotate>
  <crs:PerspectiveScale>100</crs:PerspectiveScale>
  <crs:PerspectiveUpright>0</crs:PerspectiveUpright>
  <crs:PerspectiveVertical>0</crs:PerspectiveVertical>
  <crs:PerspectiveX>0.00</crs:PerspectiveX>
  <crs:PerspectiveY>0.00</crs:PerspectiveY>
  <crs:PostCropVignetteAmount>0</crs:PostCropVignetteAmount>
  <crs:ProcessVersion>11.0</crs:ProcessVersion>
  <crs:RawFileName>262M1559.DNG</crs:RawFileName>
  <crs:RedHue>0</crs:RedHue>
  <crs:RedSaturation>0</crs:RedSaturation>
  <crs:SaturationAdjustmentAqua>0</crs:SaturationAdjustmentAqua>
  <crs:SaturationAdjustmentBlue>0</crs:SaturationAdjustmentBlue>
  <crs:SaturationAdjustmentGreen>0</crs:SaturationAdjustmentGreen>
  <crs:SaturationAdjustmentMagenta>0</crs:SaturationAdjustmentMagenta>
  <crs:SaturationAdjustmentOrange>0</crs:SaturationAdjustmentOrange>
  <crs:SaturationAdjustmentPurple>0</crs:SaturationAdjustmentPurple>
  <crs:SaturationAdjustmentRed>0</crs:SaturationAdjustmentRed>
  <crs:SaturationAdjustmentYellow>0</crs:SaturationAdjustmentYellow>
  <crs:ShadowTint>0</crs:ShadowTint>
  <crs:Shadows2012>+24</crs:Shadows2012>
  <crs:SharpenDetail>25</crs:SharpenDetail>
  <crs:SharpenEdgeMasking>0</crs:SharpenEdgeMasking>
  <crs:SharpenRadius>+1.0</crs:SharpenRadius>
  <crs:SplitToningBalance>0</crs:SplitToningBalance>
  <crs:SplitToningHighlightHue>0</crs:SplitToningHighlightHue>
  <crs:SplitToningHighlightSaturation>0</crs:SplitToningHighlightSaturation>
  <crs:SplitToningShadowHue>0</crs:SplitToningShadowHue>
  <crs:SplitToningShadowSaturation>0</crs:SplitToningShadowSaturation>
  <crs:Temperature>5900</crs:Temperature>
  <crs:Texture>0</crs:Texture>
  <crs:Tint>+13</crs:Tint>
  <crs:ToneCurve>
   <rdf:Seq>
    <rdf:li>0, 0</rdf:li>
    <rdf:li>32, 22</rdf:li>
    <rdf:li>64, 56</rdf:li>
    <rdf:li>128, 128</rdf:li>
    <rdf:li>192, 196</rdf:li>
    <rdf:li>255, 255</rdf:li>
   </rdf:Seq>
  </crs:ToneCurve>
  <crs:ToneCurveBlue>
   <rdf:Seq>
    <rdf:li>0, 0</rdf:li>
    <rdf:li>255, 255</rdf:li>
   </rdf:Seq>
  </crs:ToneCurveBlue>
  <crs:ToneCurveGreen>
   <rdf:Seq>
    <rdf:li>0, 0</rdf:li>
    <rdf:li>255, 255</rdf:li>
   </rdf:Seq>
  </crs:ToneCurveGreen>
  <crs:ToneCurveName>Medium Contrast</crs:ToneCurveName>
  <crs:ToneCurveName2012>Linear</crs:ToneCurveName2012>
  <crs:ToneCurvePV2012>
   <rdf:Seq>
    <rdf:li>0, 0</rdf:li>
    <rdf:li>255, 255</rdf:li>
   </rdf:Seq>
  </crs:ToneCurvePV2012>
  <crs:ToneCurvePV2012Blue>
   <rdf:Seq>
    <rdf:li>0, 0</rdf:li>
    <rdf:li>255, 255</rdf:li>
   </rdf:Seq>
  </crs:ToneCurvePV2012Blue>
  <crs:ToneCurvePV2012Green>
   <rdf:Seq>
    <rdf:li>0, 0</rdf:li>
    <rdf:li>255, 255</rdf:li>
   </rdf:Seq>
  </crs:ToneCurvePV2012Green>
  <crs:ToneCurvePV2012Red>
   <rdf:Seq>
    <rdf:li>0, 0</rdf:li>
    <rdf:li>255, 255</rdf:li>
   </rdf:Seq>
  </crs:ToneCurvePV2012Red>
  <crs:ToneCurveRed>
   <rdf:Seq>
    <rdf:li>0, 0</rdf:li>
    <rdf:li>255, 255</rdf:li>
   </rdf:Seq>
  </crs:ToneCurveRed>
  <crs:ToneMapStrength>0</crs:ToneMapStrength>
  <crs:UprightCenterMode>0</crs:UprightCenterMode>
  <crs:UprightCenterNormX>0.5</crs:UprightCenterNormX>
  <crs:UprightCenterNormY>0.5</crs:UprightCenterNormY>
  <crs:UprightFocalLength35mm>35</crs:UprightFocalLength35mm>
  <crs:UprightFocalMode>0</crs:UprightFocalMode>
  <crs:UprightFourSegmentsCount>0</crs:UprightFourSegmentsCount>
  <crs:UprightPreview>False</crs:UprightPreview>
  <crs:UprightTransformCount>6</crs:UprightTransformCount>
  <crs:UprightVersion>151388160</crs:UprightVersion>
  <crs:Version>12.0</crs:Version>
  <crs:Vibrance>+19</crs:Vibrance>
  <crs:VignetteAmount>0</crs:VignetteAmount>
  <crs:Whites2012>-5</crs:Whites2012>
 </rdf:Description>

 <rdf:Description rdf:about=''
  xmlns:dc='http://purl.org/dc/elements/1.1/'>
  <dc:creator>
   <rdf:Seq>
    <rdf:li>Marco S Hyman</rdf:li>
   </rdf:Seq>
  </dc:creator>
  <dc:format>image/dng</dc:format>
  <dc:rights>
   <rdf:Alt>
    <rdf:li xml:lang='x-default'>© 2019 Marco S Hyman</rdf:li>
   </rdf:Alt>
  </dc:rights>
  <dc:subject>
   <rdf:Bag>
    <rdf:li>adv</rdf:li>
    <rdf:li>magnolia</rdf:li>
    <rdf:li>san mateo</rdf:li>
   </rdf:Bag>
  </dc:subject>
  <dc:title>
   <rdf:Alt>
    <rdf:li xml:lang='x-default'>Almost spring</rdf:li>
   </rdf:Alt>
  </dc:title>
 </rdf:Description>

 <rdf:Description rdf:about=''
  xmlns:exif='http://ns.adobe.com/exif/1.0/'>
  <exif:ApertureValue>8681/1918</exif:ApertureValue>
  <exif:ColorSpace>1</exif:ColorSpace>
  <exif:Contrast>1</exif:Contrast>
  <exif:CustomRendered>0</exif:CustomRendered>
  <exif:DateTimeOriginal>2019-03-11T11:47:20</exif:DateTimeOriginal>
  <exif:DigitalZoomRatio>0/1</exif:DigitalZoomRatio>
  <exif:ExifVersion>0230</exif:ExifVersion>
  <exif:ExposureBiasValue>0/1</exif:ExposureBiasValue>
  <exif:ExposureMode>0</exif:ExposureMode>
  <exif:ExposureProgram>3</exif:ExposureProgram>
  <exif:ExposureTime>1/125</exif:ExposureTime>
  <exif:FNumber>24/5</exif:FNumber>
  <exif:FileSource>3</exif:FileSource>
  <exif:Flash rdf:parseType='Resource'>
   <exif:Fired>False</exif:Fired>
   <exif:Function>False</exif:Function>
   <exif:Mode>0</exif:Mode>
   <exif:RedEyeMode>False</exif:RedEyeMode>
   <exif:Return>0</exif:Return>
  </exif:Flash>
  <exif:FocalLength>75/1</exif:FocalLength>
  <exif:FocalPlaneResolutionUnit>3</exif:FocalPlaneResolutionUnit>
  <exif:FocalPlaneXResolution>4960/3</exif:FocalPlaneXResolution>
  <exif:FocalPlaneYResolution>4960/3</exif:FocalPlaneYResolution>
  <exif:GPSDOP>0/1</exif:GPSDOP>
  <exif:GPSSpeed>0/1</exif:GPSSpeed>
  <exif:GPSTimeStamp>2019-03-11T18:47:20Z</exif:GPSTimeStamp>
  <exif:GPSTrack>0/1</exif:GPSTrack>
  <exif:GPSVersionID>2.2.0.0</exif:GPSVersionID>
  <exif:ISOSpeedRatings>
   <rdf:Seq>
    <rdf:li>400</rdf:li>
   </rdf:Seq>
  </exif:ISOSpeedRatings>
  <exif:ImageUniqueID>00000000000000000000000000198982</exif:ImageUniqueID>
  <exif:LightSource>0</exif:LightSource>
  <exif:MaxApertureValue>2/1</exif:MaxApertureValue>
  <exif:MeteringMode>2</exif:MeteringMode>
  <exif:Saturation>0</exif:Saturation>
  <exif:SceneCaptureType>0</exif:SceneCaptureType>
  <exif:SceneType>1</exif:SceneType>
  <exif:Sharpness>0</exif:Sharpness>
  <exif:ShutterSpeedValue>49471/7102</exif:ShutterSpeedValue>
  <exif:WhiteBalance>0</exif:WhiteBalance>
 </rdf:Description>

 <rdf:Description rdf:about=''
  xmlns:exifEX='http://cipa.jp/exif/1.0/'>
  <exifEX:BodySerialNumber>4981132</exifEX:BodySerialNumber>
  <exifEX:LensMake>Leica Camera AG</exifEX:LensMake>
  <exifEX:LensModel>Apo-Summicron-M 1:2/75 ASPH .</exifEX:LensModel>
  <exifEX:LensSerialNumber>-------</exifEX:LensSerialNumber>
  <exifEX:LensSpecification>
   <rdf:Seq>
    <rdf:li>75/1</rdf:li>
    <rdf:li>75/1</rdf:li>
    <rdf:li>2/1</rdf:li>
    <rdf:li>16/1</rdf:li>
   </rdf:Seq>
  </exifEX:LensSpecification>
 </rdf:Description>

 <rdf:Description rdf:about=''
  xmlns:lr='http://ns.adobe.com/lightroom/1.0/'>
  <lr:hierarchicalSubject>
   <rdf:Bag>
    <rdf:li>adv</rdf:li>
    <rdf:li>magnolia</rdf:li>
    <rdf:li>san mateo</rdf:li>
   </rdf:Bag>
  </lr:hierarchicalSubject>
 </rdf:Description>

 <rdf:Description rdf:about=''
  xmlns:photoshop='http://ns.adobe.com/photoshop/1.0/'>
  <photoshop:DateCreated>2019-03-11T11:47:20</photoshop:DateCreated>
 </rdf:Description>

 <rdf:Description rdf:about=''
  xmlns:tiff='http://ns.adobe.com/tiff/1.0/'>
  <tiff:Artist>Marco S Hyman</tiff:Artist>
  <tiff:BitsPerSample>
   <rdf:Seq>
    <rdf:li>16</rdf:li>
   </rdf:Seq>
  </tiff:BitsPerSample>
  <tiff:Compression>7</tiff:Compression>
  <tiff:Copyright>
   <rdf:Alt>
    <rdf:li xml:lang='x-default'>© 2019 Marco S Hyman</rdf:li>
   </rdf:Alt>
  </tiff:Copyright>
  <tiff:ImageLength>4000</tiff:ImageLength>
  <tiff:ImageWidth>5984</tiff:ImageWidth>
  <tiff:Make>Leica Camera AG</tiff:Make>
  <tiff:Model>LEICA M (Typ 262)</tiff:Model>
  <tiff:Orientation>1</tiff:Orientation>
  <tiff:PhotometricInterpretation>32803</tiff:PhotometricInterpretation>
  <tiff:PlanarConfiguration>1</tiff:PlanarConfiguration>
  <tiff:ReferenceBlackWhite>
   <rdf:Seq>
    <rdf:li>0/1</rdf:li>
    <rdf:li>255/1</rdf:li>
    <rdf:li>128/1</rdf:li>
    <rdf:li>255/1</rdf:li>
    <rdf:li>128/1</rdf:li>
    <rdf:li>255/1</rdf:li>
   </rdf:Seq>
  </tiff:ReferenceBlackWhite>
  <tiff:SamplesPerPixel>1</tiff:SamplesPerPixel>
  <tiff:Software>Adobe Photoshop Lightroom Classic 8.2 (Macintosh)</tiff:Software>
  <tiff:YCbCrCoefficients>
   <rdf:Seq>
    <rdf:li>299/1000</rdf:li>
    <rdf:li>587/1000</rdf:li>
    <rdf:li>57/500</rdf:li>
   </rdf:Seq>
  </tiff:YCbCrCoefficients>
  <tiff:YCbCrPositioning>2</tiff:YCbCrPositioning>
  <tiff:YCbCrSubSampling>
   <rdf:Seq>
    <rdf:li>2</rdf:li>
    <rdf:li>2</rdf:li>
   </rdf:Seq>
  </tiff:YCbCrSubSampling>
 </rdf:Description>

 <rdf:Description rdf:about=''
  xmlns:xmp='http://ns.adobe.com/xap/1.0/'>
  <xmp:CreateDate>2019-03-11T11:47:20</xmp:CreateDate>
  <xmp:CreatorTool>Adobe Photoshop Lightroom Classic 8.2 (Macintosh)</xmp:CreatorTool>
  <xmp:MetadataDate>2019-11-30T22:22:08-08:00</xmp:MetadataDate>
  <xmp:ModifyDate>2019-03-11T19:41:15</xmp:ModifyDate>
  <xmp:Rating>1</xmp:Rating>
 </rdf:Description>

 <rdf:Description rdf:about=''
  xmlns:stEvt='http://ns.adobe.com/xap/1.0/sType/ResourceEvent#'
  xmlns:stRef='http://ns.adobe.com/xap/1.0/sType/ResourceRef#'
  xmlns:xmpMM='http://ns.adobe.com/xap/1.0/mm/'>
  <xmpMM:DerivedFrom rdf:parseType='Resource'>
   <stRef:documentID>30303030303030303030313938393832</stRef:documentID>
   <stRef:originalDocumentID>30303030303030303030313938393832</stRef:originalDocumentID>
  </xmpMM:DerivedFrom>
  <xmpMM:DocumentID>xmp.did:01269d12-5f9b-4bd1-9564-795ccf101a67</xmpMM:DocumentID>
  <xmpMM:History>
   <rdf:Seq>
    <rdf:li rdf:parseType='Resource'>
     <stEvt:action>derived</stEvt:action>
     <stEvt:parameters>saved to new location</stEvt:parameters>
    </rdf:li>
    <rdf:li rdf:parseType='Resource'>
     <stEvt:action>saved</stEvt:action>
     <stEvt:changed>/</stEvt:changed>
     <stEvt:instanceID>xmp.iid:01269d12-5f9b-4bd1-9564-795ccf101a67</stEvt:instanceID>
     <stEvt:softwareAgent>Adobe Photoshop Lightroom Classic 8.2 (Macintosh)</stEvt:softwareAgent>
     <stEvt:when>2019-03-11T19:41:15-07:00</stEvt:when>
    </rdf:li>
    <rdf:li rdf:parseType='Resource'>
     <stEvt:action>saved</stEvt:action>
     <stEvt:changed>/metadata</stEvt:changed>
     <stEvt:instanceID>xmp.iid:ec5502c5-4e7f-46ea-8e51-799da84e8652</stEvt:instanceID>
     <stEvt:softwareAgent>Adobe Photoshop Lightroom Classic 9.0 (Macintosh)</stEvt:softwareAgent>
     <stEvt:when>2019-11-30T22:22:08-08:00</stEvt:when>
    </rdf:li>
   </rdf:Seq>
  </xmpMM:History>
  <xmpMM:InstanceID>xmp.iid:ec5502c5-4e7f-46ea-8e51-799da84e8652</xmpMM:InstanceID>
  <xmpMM:OriginalDocumentID>30303030303030303030313938393832</xmpMM:OriginalDocumentID>
 </rdf:Description>

 <rdf:Description rdf:about=''
  xmlns:xmpRights='http://ns.adobe.com/xap/1.0/rights/'>
  <xmpRights:Marked>True</xmpRights:Marked>
  <xmpRights:UsageTerms>
   <rdf:Alt>
    <rdf:li xml:lang='x-default'>CC BY NC</rdf:li>
   </rdf:Alt>
  </xmpRights:UsageTerms>
  <xmpRights:WebStatement>http://creativecommons.org/licenses/by-nc/4.0/</xmpRights:WebStatement>
 </rdf:Description>
</rdf:RDF>
</x:xmpmeta>
<?xpacket end='w'?>